X:1
T:Verbonden en zegenend
T:Verbonden en zegenend
T:318
T:Jos Bielen
T:Kris Gelaude
C:Jos Bielen
Z:Kris Gelaude
L:1/8
Q:1/4=120
M:4/4
K:D
V:1 treble nm="Piano" snm="Pno."
V:1
"^\n" A2 | A3 A B2 AG | A2 A4 z2 | D2 EF G2 GF | E2 FG F4 | A2 AA G2 FG | A2 A4 z2 | G2 AB A2 GF | %8
w: Nu|wacht een we- reld vol|vra- gen.|Lui- ster met aan- dacht en|kijk met je hart.|Lief- de al- leen vindt een|ant- woord|dat kan ver- zach- ten wat|
w: Sta|op en leef on- be-|van- gen.|God maakt je vrij en Hij|geeft je zijn kracht.|Men- sen be- zield en be-|wo- gen|wor- den een te- ken, een|
w: Ga|dan met woor- den van|vre- de.|Reik ze groot- moe- dig aan|wie je ont- moet.|Laat ze ver- bin- den, niet|bre- ken.|Dat ze tot troost zijn, die|
 E2 EF D4 | F2 FE D2 FG | A2 AA B2 cd | A2 A2 z AAA | d2 dd c2 BB | A4 z FFF | G2 GG A2 AA | %15
w: kil is en hard.|Dat wij op ie- de- re|plek steeds met min- zaam- heid|ko- men, dat wij ver-|bon- den en ze- ge- nend|gaan, dat wij ver-|bon- den en ze- ge- nend|
w: licht in de nacht.|||||||
w: hoop wekt en moed.|||||||
 A4 z4 |] %16
w: gaan|
w: |
w: |

